SVG_Azure_All/Log Analytics Query Pack.svg

<?xml version="1.0" encoding="UTF-8" standalone="no"?>
<!-- Generated by Microsoft Visio, SVG Export Log Analytics Query Pack.svg Page-1 -->

<svg
   xmlns:dc="http://purl.org/dc/elements/1.1/"
   xmlns:cc="http://creativecommons.org/ns#"
   xmlns:rdf="http://www.w3.org/1999/02/22-rdf-syntax-ns#"
   xmlns:svg="http://www.w3.org/2000/svg"
   xmlns="http://www.w3.org/2000/svg"
   xmlns:sodipodi="http://sodipodi.sourceforge.net/DTD/sodipodi-0.dtd"
   xmlns:inkscape="http://www.inkscape.org/namespaces/inkscape"
   width="0.78737903in"
   height="0.78745681in"
   viewBox="0 0 56.691198 56.697201"
   xml:space="preserve"
   class="st5"
   version="1.1"
   id="svg51"
   sodipodi:docname="Log Analytics Query Pack.svg"
   style="font-size:12px;overflow:visible;color-interpolation-filters:sRGB;fill:none;fill-rule:evenodd;stroke-linecap:square;stroke-miterlimit:3"
   inkscape:version="0.92.5 (2060ec1f9f, 2020-04-08)"><metadata
   id="metadata55"><rdf:RDF><cc:Work
       rdf:about=""><dc:format>image/svg+xml</dc:format><dc:type
         rdf:resource="http://purl.org/dc/dcmitype/StillImage" /></cc:Work></rdf:RDF></metadata><sodipodi:namedview
   pagecolor="#ffffff"
   bordercolor="#666666"
   borderopacity="1"
   objecttolerance="10"
   gridtolerance="10"
   guidetolerance="10"
   inkscape:pageopacity="0"
   inkscape:pageshadow="2"
   inkscape:window-width="640"
   inkscape:window-height="480"
   id="namedview53"
   showgrid="false"
   inkscape:zoom="1.4193119"
   inkscape:cx="37.795128"
   inkscape:cy="37.786193"
   inkscape:window-x="0"
   inkscape:window-y="0"
   inkscape:window-maximized="0"
   inkscape:current-layer="svg51" />
	<style
   type="text/css"
   id="style2">
	<![CDATA[
		.st1 {fill:#773adc;stroke:none;stroke-linecap:butt;stroke-width:34}
		.st2 {fill:url(#grad0-8);stroke:none;stroke-linecap:butt;stroke-width:34}
		.st3 {fill:url(#grad0-12);stroke:none;stroke-linecap:butt;stroke-width:34}
		.st4 {fill:#ffffff;stroke:none;stroke-linecap:butt;stroke-width:34}
		.st5 {fill:none;fill-rule:evenodd;font-size:12px;overflow:visible;stroke-linecap:square;stroke-miterlimit:3}
	]]>
	</style>

	<defs
   id="Patterns_And_Gradients">
		<linearGradient
   id="grad0-8"
   x1="0"
   y1="84.098116"
   x2="40.534992"
   y2="84.098116"
   gradientTransform="scale(0.99938344,1.0006169)"
   gradientUnits="userSpaceOnUse">
			<stop
   offset="0"
   stop-color="#773adc"
   stop-opacity="1"
   id="stop4" />
			<stop
   offset="0.155"
   stop-color="#7d43df"
   stop-opacity="1"
   id="stop6" />
			<stop
   offset="0.41"
   stop-color="#8e5be6"
   stop-opacity="1"
   id="stop8" />
			<stop
   offset="0.73"
   stop-color="#a981f2"
   stop-opacity="1"
   id="stop10" />
			<stop
   offset="0.88"
   stop-color="#b796f9"
   stop-opacity="1"
   id="stop12" />
		</linearGradient>
		<linearGradient
   id="grad0-12"
   x1="0"
   y1="84.077354"
   x2="40.524985"
   y2="84.077354"
   gradientTransform="scale(0.99913671,1.000864)"
   gradientUnits="userSpaceOnUse">
			<stop
   offset="0"
   stop-color="#773adc"
   stop-opacity="1"
   id="stop15" />
			<stop
   offset="0.87"
   stop-color="#b796f9"
   stop-opacity="1"
   id="stop17" />
		</linearGradient>
	</defs>
	<g
   id="g49"
   transform="translate(-34.000441,-33.997098)">
		<title
   id="title21">Page-1</title>
		<g
   id="group3366-1"
   transform="translate(34,-34.0157)">
			<title
   id="title23">Log Analytics Query Pack</title>
			<g
   id="group3367-2">
				<title
   id="title25">Sheet.3367</title>
				<g
   id="shape3368-3"
   transform="translate(16.2016,-16.1372)">
					<title
   id="title27">Sheet.3368</title>
					<path
   d="M 39.2,85.44 A 4.40945,4.41337 -180 0 0 36.08,84.15 H 4.41 A 4.4315,4.43544 -180 0 0 0,88.57 v 31.73 a 4.4315,4.43544 -180 0 0 4.41,4.41 h 31.67 a 4.40945,4.41337 -180 0 0 4.41,-4.41 V 88.56 A 4.40945,4.41337 -180 0 0 39.2,85.44 Z"
   class="st1"
   id="path29"
   inkscape:connector-curvature="0"
   style="fill:#773adc;stroke:none;stroke-width:34;stroke-linecap:butt" />
				</g>
				<g
   id="shape3369-5"
   transform="translate(7.68189,-7.60991)">
					<title
   id="title32">Sheet.3369</title>
					<path
   d="M 39.2,85.44 A 4.40945,4.41337 -180 0 0 36.09,84.15 H 4.41 A 4.4315,4.43544 -180 0 0 0,88.57 v 31.73 a 4.4315,4.43544 -180 0 0 4.41,4.41 H 36.1 a 4.40945,4.41337 -180 0 0 4.41,-4.41 V 88.56 A 4.41575,4.41968 -180 0 0 39.2,85.44 Z"
   class="st2"
   id="path34"
   inkscape:connector-curvature="0"
   style="fill:url(#grad0-8);stroke:none;stroke-width:34;stroke-linecap:butt" />
				</g>
				<g
   id="shape3370-9">
					<title
   id="title37">Sheet.3370</title>
					<path
   d="M 36.08,124.7 H 4.41 A 4.4315,4.43544 0 0 1 0,120.29 V 88.56 a 4.4315,4.43544 0 0 1 4.41,-4.41 h 31.67 a 4.40945,4.41337 0 0 1 4.41,4.41 v 31.74 a 4.40945,4.41337 0 0 1 -4.41,4.41 z"
   class="st3"
   id="path39"
   inkscape:connector-curvature="0"
   style="fill:url(#grad0-12);stroke:none;stroke-width:34;stroke-linecap:butt" />
				</g>
				<g
   id="shape3371-13"
   transform="translate(5.94646,-9.43516)">
					<title
   id="title42">Sheet.3371</title>
					<path
   d="m 8.16,120.41 a 1.04882,1.04975 -180 0 0 -1.02,1.07 v 2.15 a 1.04882,1.04975 -180 0 0 1.02,1.08 h 19.41 a 1.05197,1.0529 -180 0 0 0.95,-0.67 1.04252,1.04345 -180 0 0 0.07,-0.4 v -2.15 a 1.04567,1.0466 -180 0 0 -1.02,-1.07 z M 0,121.46 a 1.03937,1.04029 0 0 1 1.04,-1.05 h 2.21 a 1.03937,1.04029 0 0 1 1.04,1.05 v 2.2 a 1.04252,1.04345 0 0 1 -1.05,1.05 H 1.04 A 1.04252,1.04345 0 0 1 0,123.67 Z m 8.16,-9.74 a 1.05197,1.0529 -180 0 0 -1.02,1.07 v 2.14 A 1.04882,1.04975 -180 0 0 8.16,116 h 19.41 a 1.05197,1.0529 -180 0 0 0.95,-0.66 1.03937,1.04029 -180 0 0 0.07,-0.41 v -2.14 a 1.04882,1.04975 -180 0 0 -1.02,-1.07 H 8.17 Z M 0,112.76 a 1.03937,1.04029 0 0 1 1.04,-1.04 h 2.21 a 1.03937,1.04029 0 0 1 1.04,1.04 v 2.21 a 1.04252,1.04345 0 0 1 -1.04,1.04 H 1.04 A 1.03937,1.04029 0 0 1 0,114.97 Z m 8.16,-9.73 a 1.04882,1.04975 -180 0 0 -1.02,1.07 v 2.14 a 1.05197,1.0529 -180 0 0 1.02,1.07 h 19.41 a 1.04882,1.04975 -180 0 0 1.02,-1.07 v -2.14 a 1.04567,1.0466 -180 0 0 -1.02,-1.07 H 8.17 Z M 0,104.07 a 1.03937,1.04029 0 0 1 1.04,-1.04 h 2.21 a 1.04252,1.04345 0 0 1 1.04,1.04 v 2.2 a 1.04252,1.04345 0 0 1 -1.04,1.05 H 1.04 A 1.04252,1.04345 0 0 1 0,106.27 Z"
   class="st4"
   id="path44"
   inkscape:connector-curvature="0"
   style="fill:#ffffff;stroke:none;stroke-width:34;stroke-linecap:butt" />
				</g>
			</g>
		</g>
	</g>
</svg>

<?xml version="1.0" encoding="UTF-8" standalone="no"?>
<!DOCTYPE svg PUBLIC "-//W3C//DTD SVG 1.1//EN" "http://www.w3.org/Graphics/SVG/1.1/DTD/svg11.dtd">
<!-- Generated by Microsoft Visio, SVG Export Log Analytics Query Pack.svg Page-1 -->
<svg xmlns="http://www.w3.org/2000/svg" xmlns:xlink="http://www.w3.org/1999/xlink" xmlns:ev="http://www.w3.org/2001/xml-events"
		width="1.73185in" height="1.73206in" viewBox="0 0 124.693 124.709" xml:space="preserve" color-interpolation-filters="sRGB"
		class="st5">
	<style type="text/css">
	<![CDATA[
		.st1 {fill:#773adc;stroke:none;stroke-linecap:butt;stroke-width:34}
		.st2 {fill:url(#grad0-8);stroke:none;stroke-linecap:butt;stroke-width:34}
		.st3 {fill:url(#grad0-12);stroke:none;stroke-linecap:butt;stroke-width:34}
		.st4 {fill:#ffffff;stroke:none;stroke-linecap:butt;stroke-width:34}
		.st5 {fill:none;fill-rule:evenodd;font-size:12px;overflow:visible;stroke-linecap:square;stroke-miterlimit:3}
	]]>
	</style>

	<defs id="Patterns_And_Gradients">
		<linearGradient id="grad0-8" x1="0" y1="0" x2="1" y2="0" gradientTransform="rotate(-89.39027111272 0.5 0.5)">
			<stop offset="0" stop-color="#773adc" stop-opacity="1"/>
			<stop offset="0.155" stop-color="#7d43df" stop-opacity="1"/>
			<stop offset="0.41" stop-color="#8e5be6" stop-opacity="1"/>
			<stop offset="0.73" stop-color="#a981f2" stop-opacity="1"/>
			<stop offset="0.88" stop-color="#b796f9" stop-opacity="1"/>
		</linearGradient>
		<linearGradient id="grad0-12" x1="0" y1="0" x2="1" y2="0" gradientTransform="rotate(-90 0.5 0.5)">
			<stop offset="0" stop-color="#773adc" stop-opacity="1"/>
			<stop offset="0.87" stop-color="#b796f9" stop-opacity="1"/>
		</linearGradient>
	</defs>
	<g>
		<title>Page-1</title>
		<g id="group3314-1" transform="translate(34,-34.0157)">
			<title>Log Analytics Query Pack</title>
			<g id="group3315-2">
				<title>Sheet.3315</title>
				<g id="shape3316-3" transform="translate(16.2016,-16.1372)">
					<title>Sheet.3316</title>
					<path d="M39.2 85.44 A4.40945 4.41337 -180 0 0 36.08 84.15 L4.41 84.15 A4.4315 4.43544 -180 0 0 -0 88.57 L0 120.3
								 A4.4315 4.43544 -180 0 0 4.41 124.71 L36.08 124.71 A4.40945 4.41337 -180 0 0 40.49 120.3 L40.49
								 88.56 A4.40945 4.41337 -180 0 0 39.2 85.44 Z" class="st1"/>
				</g>
				<g id="shape3317-5" transform="translate(7.68189,-7.60991)">
					<title>Sheet.3317</title>
					<path d="M39.2 85.44 A4.40945 4.41337 -180 0 0 36.09 84.15 L4.41 84.15 A4.4315 4.43544 -180 0 0 -0 88.57 L0 120.3
								 A4.4315 4.43544 -180 0 0 4.41 124.71 L36.1 124.71 A4.40945 4.41337 -180 0 0 40.51 120.3 L40.51 88.56
								 A4.41575 4.41968 -180 0 0 39.2 85.44 Z" class="st2"/>
				</g>
				<g id="shape3318-9">
					<title>Sheet.3318</title>
					<path d="M36.08 124.7 L4.41 124.7 A4.4315 4.43544 0 0 1 -0 120.29 L0 88.56 A4.4315 4.43544 0 0 1 4.41 84.15 L36.08
								 84.15 A4.40945 4.41337 0 0 1 40.49 88.56 L40.49 120.3 A4.40945 4.41337 0 0 1 36.08 124.71 L36.08
								 124.7 Z" class="st3"/>
				</g>
				<g id="shape3319-13" transform="translate(5.94646,-9.43516)">
					<title>Sheet.3319</title>
					<path d="M8.16 120.41 A1.04882 1.04975 -180 0 0 7.14 121.48 L7.14 123.63 A1.04882 1.04975 -180 0 0 8.16 124.71
								 L27.57 124.71 A1.05197 1.0529 -180 0 0 28.52 124.04 A1.04252 1.04345 -180 0 0 28.59 123.64 L28.59
								 121.49 A1.04567 1.0466 -180 0 0 27.57 120.42 L8.16 120.41 ZM0 121.46 A1.03937 1.04029 0 0 1 1.04
								 120.41 L3.25 120.41 A1.03937 1.04029 0 0 1 4.29 121.46 L4.29 123.66 A1.04252 1.04345 0 0 1 3.24
								 124.71 L1.04 124.71 A1.04252 1.04345 0 0 1 0 123.67 L0 121.46 L0 121.46 ZM8.16 111.72 A1.05197 1.0529
								 -180 0 0 7.14 112.79 L7.14 114.93 A1.04882 1.04975 -180 0 0 8.16 116 L27.57 116 A1.05197 1.0529
								 -180 0 0 28.52 115.34 A1.03937 1.04029 -180 0 0 28.59 114.93 L28.59 112.79 A1.04882 1.04975 -180
								 0 0 27.57 111.72 L8.17 111.72 L8.16 111.72 ZM0 112.76 A1.03937 1.04029 0 0 1 1.04 111.72 L3.25 111.72
								 A1.03937 1.04029 0 0 1 4.29 112.76 L4.29 114.97 A1.04252 1.04345 0 0 1 3.25 116.01 L1.04 116.01
								 A1.03937 1.04029 0 0 1 0 114.97 L0 112.76 ZM8.16 103.03 A1.04882 1.04975 -180 0 0 7.14 104.1 L7.14
								 106.24 A1.05197 1.0529 -180 0 0 8.16 107.31 L27.57 107.31 A1.04882 1.04975 -180 0 0 28.59 106.24
								 L28.59 104.1 A1.04567 1.0466 -180 0 0 27.57 103.03 L8.17 103.03 L8.16 103.03 ZM0 104.07 A1.03937
								 1.04029 0 0 1 1.04 103.03 L3.25 103.03 A1.04252 1.04345 0 0 1 4.29 104.07 L4.29 106.27 A1.04252
								 1.04345 0 0 1 3.25 107.32 L1.04 107.32 A1.04252 1.04345 0 0 1 0 106.27 L0 104.07 Z" class="st4"/>
				</g>
			</g>
		</g>
	</g>
</svg>
